/* XPM */
static char *door_xpm[] = {
"64 64 5 1",
". c #6B3A1F",
"# c #8B4513",
"+ c #A0522D",
"X c #3D1F0A",
"L c #C47A3A",
"XXXXXXXXXXXXXXXXXXXXXXXXXXXXXXXXXXXXXXXXXXXXXXXXXXXXXXXXXXXXXXXX",
"XXXXXXXXXXXXXXXXXXXXXXXXXXXXXXXXXXXXXXXXXXXXXXXXXXXXXXXXXXXXXXXX",
"XXXXXXXXXXXXXXXXXXXXXXXXXXXXXXXXXXXXXXXXXXXXXXXXXXXXXXXXXXXXXXXX",
"XXX..........................................................XXX",
"XXX..........................................................XXX",
"XXX..........................................................XXX",
"XXX...##.#######.#######.#######.#######.#######.#######.#...XXX",
"XXX...#XXXXXXXXXXXXXXXXXXXXXX###.##XXXXXXXXXXXXXXXXXXXXXX#...XXX",
"XXX...#X++++++++++++++++++++X###.##X++++++++++++++++++++X#...XXX",
"XXX...#X++++++++++++++++++++X###.##X++++++++++++++++++++X#...XXX",
"XXX...#X++++++++++++++++++++X###.##X++++++++++++++++++++X#...XXX",
"XXX...#X++++++++++++++++++++X###.##X++++++++++++++++++++X#...XXX",
"XXX...#X++++++++++++++++++++X###.##X++++++++++++++++++++X#...XXX",
"XXX...#X++++++++++++++++++++X###.##X++++++++++++++++++++X#...XXX",
"XXX...#X++++++++++++++++++++X###.##X++++++++++++++++++++X#...XXX",
"XXX...#X++++++++++++++++++++X###.##X++++++++++++++++++++X#...XXX",
"XXX...LX++++++++++++++++++++XLLL.LLX++++++++++++++++++++XL...XXX",
"XXX...#X++++++++++++++++++++X###.##X++++++++++++++++++++X#...XXX",
"XXX...#X++++++++++++++++++++X###.##X++++++++++++++++++++X#...XXX",
"XXX...#X++++++++++++++++++++X###.##X++++++++++++++++++++X#...XXX",
"XXX...#X++++++++++++++++++++X###.##X++++++++++++++++++++X#...XXX",
"XXX...#X++++++++++++++++++++X###.##X++++++++++++++++++++X#...XXX",
"XXX...#X++++++++++++++++++++X###.##X++++++++++++++++++++X#...XXX",
"XXX...#X++++++++++++++++++++X###.##X++++++++++++++++++++X#...XXX",
"XXX...#X++++++++++++++++++++X###.##X++++++++++++++++++++X#...XXX",
"XXX...#X++++++++++++++++++++X###.##X++++++++++++++++++++X#...XXX",
"XXX...#X++++++++++++++++++++X###.##X++++++++++++++++++++X#...XXX",
"XXX...#X++++++++++++++++++++X###.##X++++++++++++++++++++X#...XXX",
"XXX...#XXXXXXXXXXXXXXXXXXXXXX###.##XXXXXXXXXXXXXXXXXXXXXX#...XXX",
"XXX...##.#######.#######.#######.#######.#######.#######.#...XXX",
"XXX...##.#######.#######.#######.#######.#######.#######.#...XXX",
"XXX...##.#######.#######.#######.#######.#######.#######.#...XXX",
"XXX...LXXXXXXXXXXXXXXXXXXXXXXLLL.LLXXXXXXXXXXXXXXXXXXXXXXL...XXX",
"XXX...#X++++++++++++++++++++X###.##X++++++++++++++++++++X#...XXX",
"XXX...#X++++++++++++++++++++X###.##X++++++++++++++++++++X#...XXX",
"XXX...#X++++++++++++++++++++X###.##X++++++++++++++++++++X#...XXX",
"XXX...#X++++++++++++++++++++X###.##X++++++++++++++++++++X#...XXX",
"XXX...#X++++++++++++++++++++X###.##X++++++++++++++++++++X#...XXX",
"XXX...#X++++++++++++++++++++X###.##X++++++++++++++++++++X#...XXX",
"XXX...#X++++++++++++++++++++X###.##X++++++++++++++++++++X#...XXX",
"XXX...#X++++++++++++++++++++X###.##X++++++++++++++++++++X#...XXX",
"XXX...#X++++++++++++++++++++X###.##X++++++++++++++++++++X#...XXX",
"XXX...#X++++++++++++++++++++X###.##X++++++++++++++++++++X#...XXX",
"XXX...#X++++++++++++++++++++X###.##X++++++++++++++++++++X#...XXX",
"XXX...#X++++++++++++++++++++X###.##X++++++++++++++++++++X#...XXX",
"XXX...#X++++++++++++++++++++X###.##X++++++++++++++++++++X#...XXX",
"XXX...#X++++++++++++++++++++X###.##X++++++++++++++++++++X#...XXX",
"XXX...#X++++++++++++++++++++X###.##X++++++++++++++++++++X#...XXX",
"XXX...LX++++++++++++++++++++XLLL.LLX++++++++++++++++++++XL...XXX",
"XXX...#X++++++++++++++++++++X###.##X++++++++++++++++++++X#...XXX",
"XXX...#X++++++++++++++++++++X###.##X++++++++++++++++++++X#...XXX",
"XXX...#X++++++++++++++++++++X###.##X++++++++++++++++++++X#...XXX",
"XXX...#X++++++++++++++++++++X###.##X++++++++++++++++++++X#...XXX",
"XXX...#XXXXXXXXXXXXXXXXXXXXXX###.##XXXXXXXXXXXXXXXXXXXXXX#...XXX",
"XXX...##.#######.#######.#######.#######.#######.#######.#...XXX",
"XXX...##.#######.#######.#######.#######.#######.#######.#...XXX",
"XXX...##.#######.#######.#######.#######.#######.#######.#...XXX",
"XXX...##.#######.#######.#######.#######.#######.#######.#...XXX",
"XXX..........................................................XXX",
"XXX..........................................................XXX",
"XXX..........................................................XXX",
"XXXXXXXXXXXXXXXXXXXXXXXXXXXXXXXXXXXXXXXXXXXXXXXXXXXXXXXXXXXXXXXX",
"XXXXXXXXXXXXXXXXXXXXXXXXXXXXXXXXXXXXXXXXXXXXXXXXXXXXXXXXXXXXXXXX",
"XXXXXXXXXXXXXXXXXXXXXXXXXXXXXXXXXXXXXXXXXXXXXXXXXXXXXXXXXXXXXXXX"
};
