/* XPM */
static cha *east[] = {
"64 64 2 1",
"# c #AA8833",
". c #554422",
"................................................................",
"#######.########.#######.########.#######.########.#######.#####",
"#######.########.#######.########.#######.########.#######.#####",
"#######.########.#######.########.#######.########.#######.#####",
"................................................................",
"####.########.#######.########.#######.########.#######.########",
"####.########.#######.########.#######.########.#######.########",
"####.########.#######.########.#######.########.#######.########",
"................................................................",
"#######.########.#######.########.#######.########.#######.#####",
"#######.########.#######.########.#######.########.#######.#####",
"#######.########.#######.########.#######.########.#######.#####",
"................................................................",
"####.########.#######.########.#######.########.#######.########",
"####.########.#######.########.#######.########.#######.########",
"####.########.#######.########.#######.########.#######.########",
"................................................................",
"#######.########.#######.########.#######.########.#######.#####",
"#######.########.#######.########.#######.########.#######.#####",
"#######.########.#######.########.#######.########.#######.#####",
"................................................................",
"####.########.#######.########.#######.########.#######.########",
"####.########.#######.########.#######.########.#######.########",
"####.########.#######.########.#######.########.#######.########",
"................................................................",
"#######.########.#######.########.#######.########.#######.#####",
"#######.########.#######.########.#######.########.#######.#####",
"#######.########.#######.########.#######.########.#######.#####",
"................................................................",
"####.########.#######.########.#######.########.#######.########",
"####.########.#######.########.#######.########.#######.########",
"####.########.#######.########.#######.########.#######.########",
"................................................................",
"#######.########.#######.########.#######.########.#######.#####",
"#######.########.#######.########.#######.########.#######.#####",
"#######.########.#######.########.#######.########.#######.#####",
"................................................................",
"####.########.#######.########.#######.########.#######.########",
"####.########.#######.########.#######.########.#######.########",
"####.########.#######.########.#######.########.#######.########",
"................................................................",
"#######.########.#######.########.#######.########.#######.#####",
"#######.########.#######.########.#######.########.#######.#####",
"#######.########.#######.########.#######.########.#######.#####",
"................................................................",
"####.########.#######.########.#######.########.#######.########",
"####.########.#######.########.#######.########.#######.########",
"####.########.#######.########.#######.########.#######.########",
"................................................................",
"#######.########.#######.########.#######.########.#######.#####",
"#######.########.#######.########.#######.########.#######.#####",
"#######.########.#######.########.#######.########.#######.#####",
"................................................................",
"####.########.#######.########.#######.########.#######.########",
"####.########.#######.########.#######.########.#######.########",
"####.########.#######.########.#######.########.#######.########",
"................................................................",
"#######.########.#######.########.#######.########.#######.#####",
"#######.########.#######.########.#######.########.#######.#####",
"#######.########.#######.########.#######.########.#######.#####",
"................................................................",
"####.########.#######.########.#######.########.#######.########",
"####.########.#######.########.#######.########.#######.########",
"####.########.#######.########.#######.########.#######.########"
};
