/* XPM */
static char *gun_xpm[] = {
"64 128 5 1",
". c #000000",
"G c #888888",
"D c #555555",
"L c #AAAAAA",
"H c #CCCCCC",
"................................................................",
"................................................................",
"................................................................",
"................................................................",
"................................................................",
"................................................................",
"................................................................",
"................................................................",
"................................................................",
"................................................................",
"................................................................",
"................................................................",
"................................................................",
"................................................................",
"................................................................",
"................................................................",
"................................................................",
"................................................................",
"................................................................",
"................................................................",
"................................................................",
"................................................................",
"................................................................",
"................................................................",
"................................................................",
"................................................................",
"................................................................",
"................................................................",
"................................................................",
"................................................................",
"................................................................",
"................................................................",
"................................................................",
"................................................................",
"................................................................",
"................................................................",
"................................................................",
"................................................................",
"................................................................",
"................................................................",
"................................................................",
"................................................................",
"................................................................",
"................................................................",
"................................................................",
"................................................................",
"................................................................",
"................................................................",
"................................................................",
"................................................................",
"................................................................",
"................................................................",
"................................................................",
"................................................................",
"................................................................",
"................................................................",
"........................DDDDD.........................HHH.......",
"........................DDDDD.........................HHH.......",
"........................DDDDD.......................HHHHHHH.....",
"........................DDDDD.......................HHHHHHH.....",
"....................LLLLDDDDDLLLDLLLLDLLLLDLLLLDLLLLLLHHHLL.....",
"....................LLLLLLLLLLLLDLLLLDLLLLDLLLLDLLLLLLLLLLL.....",
"....................GGGGGGGGGGGGDGGGGDGGGGDGGGGDGGGGLLLLLLL.....",
"....................GGGGGGGGGGGGDGGGGDGGGGDGGGGDGGGGLLLLLLL.....",
"....................GGGGGGGGGGGGDGGGGDGGGGDGGGGDGGGGLLLLLLL.....",
"....................GGGGGGGGGGGGDGGGGDGGGGDGGGGDGGGGLLLLLLL.....",
"....................GGGGGGGGGGGGDGGGGDGGGGDGGGGDGGGGLLLLLLL.....",
"....................DDDDDDDDDDDDDDDDDDDDDDDDDDDDDDDDLLLLLLL.....",
"....................DDDDDDDDDDGGDGGGGDLDDDDDDDDDDDDDLLLLLLL.....",
"............................DDGGGGGGGLL.............LLLLLLL.....",
"............................DDGGGGGGGLL.............LLLLLLL.....",
"............................DDGGGGGGGLL.........................",
"..........................DDGGGGGGGGGGGGGLL.....................",
"..........................DDGGGGGGGGGGGGGLL.....................",
"..........................DDGGGGGGGGGGGGGLL.....................",
"..........................DDGGGGGGGGGGGGGLL.....................",
"..........................DDGGGGGGGGGGGGGLL.....................",
"..........................DDGGGGGGGGGGGGGLL.....................",
"..........................DDGGGGGGGGGGGGGLL.....................",
"..........................DDGGGGGGGGGGGGGLL.....................",
"..........................DDGGGGGGGGGGGGGLL.....................",
"..........................DDGGGGGGGGGGGGGLL.....................",
"..........................DDGGGGGGGGGGGGGLL.....................",
"..........................DDGGGGGGGGGGGGGLL.....................",
"..........................DDGGGGGGGGGGGGGLL.....................",
"..........................DDGGGGGGGGGGGGGLL.....................",
"..........................DDGGGGGGGGGGGGGLL.....................",
"..........................DDGGGGGGGGGGGGGLL.....................",
"..........................DDGGGGGGGGGGGGGLL.....................",
"..........................DDGGGGGGGGGGGGGLL.....................",
"..........................DDGGGGGGGGGGGGGLL.....................",
"..........................DDGGGGGGGGGGGGGLL.....................",
"..........................DDGGGGGGGGGGGGGLL.....................",
"..........................DDGGGGGGGGGGGGGLL.....................",
"..........................DDGGGGGGGGGGGGGLL.....................",
"..........................DDGGGGGGGGGGGGGLL.....................",
"..........................DDGGGGGGGGGGGGGLL.....................",
"..........................DDGGGGGGGGGGGGGLL.....................",
"..........................DDGGGGGGGGGGGGGLL.....................",
"..........................DDGGGGGGGGGGGGGLL.....................",
"..........................DDGGGGGGGGGGGGGLL.....................",
"..........................DDGGGGGGGGGGGGGLL.....................",
"..........................DDGGGGGGGGGGGGGLL.....................",
"..........................DDGGGGGGGGGGGGGLL.....................",
"..........................DDGGGGGGGGGGGGGLL.....................",
"..........................DDGGGGGGGGGGGGGLL.....................",
"..........................DDGGGGGGGGGGGGGLL.....................",
"..........................DDGGGGGGGGGGGGGLL.....................",
"..........................DDDDDDDDDDDDDDDDL.....................",
"..........................DDDDDDDDDDDDDDDDL.....................",
"..........................DDDDDDDDDDDDDDDDL.....................",
"................................................................",
"................................................................",
"................................................................",
"................................................................",
"................................................................",
"................................................................",
"................................................................",
"................................................................",
"................................................................",
"................................................................",
"................................................................",
"................................................................",
"................................................................",
"................................................................",
"................................................................",
"................................................................",
"................................................................"
};