/* XPM */
static cha *north[] = {
"64 64 2 1",
"# c #3366AA",
". c #1A3355",
"................................................................",
"#######.########.#######.########.#######.########.#######.#####",
"#######.########.#######.########.#######.########.#######.#####",
"#######.########.#######.########.#######.########.#######.#####",
"................................................................",
"####.########.#######.########.#######.########.#######.########",
"####.########.#######.########.#######.########.#######.########",
"####.########.#######.########.#######.########.#######.########",
"................................................................",
"#######.########.#######.########.#######.########.#######.#####",
"#######.########.#######.########.#######.########.#######.#####",
"#######.########.#######.########.#######.########.#######.#####",
"................................................................",
"####.########.#######.########.#######.########.#######.########",
"####.########.#######.########.#######.########.#######.########",
"####.########.#######.########.#######.########.#######.########",
"................................................................",
"#######.########.#######.########.#######.########.#######.#####",
"#######.########.#######.########.#######.########.#######.#####",
"#######.########.#######.########.#######.########.#######.#####",
"................................................................",
"####.########.#######.########.#######.########.#######.########",
"####.########.#######.########.#######.########.#######.########",
"####.########.#######.########.#######.########.#######.########",
"................................................................",
"#######.########.#######.########.#######.########.#######.#####",
"#######.########.#######.########.#######.########.#######.#####",
"#######.########.#######.########.#######.########.#######.#####",
"................................................................",
"####.########.#######.########.#######.########.#######.########",
"####.########.#######.########.#######.########.#######.########",
"####.########.#######.########.#######.########.#######.########",
"................................................................",
"#######.########.#######.########.#######.########.#######.#####",
"#######.########.#######.########.#######.########.#######.#####",
"#######.########.#######.########.#######.########.#######.#####",
"................................................................",
"####.########.#######.########.#######.########.#######.########",
"####.########.#######.########.#######.########.#######.########",
"####.########.#######.########.#######.########.#######.########",
"................................................................",
"#######.########.#######.########.#######.########.#######.#####",
"#######.########.#######.########.#######.########.#######.#####",
"#######.########.#######.########.#######.########.#######.#####",
"................................................................",
"####.########.#######.########.#######.########.#######.########",
"####.########.#######.########.#######.########.#######.########",
"####.########.#######.########.#######.########.#######.########",
"................................................................",
"#######.########.#######.########.#######.########.#######.#####",
"#######.########.#######.########.#######.########.#######.#####",
"#######.########.#######.########.#######.########.#######.#####",
"................................................................",
"####.########.#######.########.#######.########.#######.########",
"####.########.#######.########.#######.########.#######.########",
"####.########.#######.########.#######.########.#######.########",
"................................................................",
"#######.########.#######.########.#######.########.#######.#####",
"#######.########.#######.########.#######.########.#######.#####",
"#######.########.#######.########.#######.########.#######.#####",
"................................................................",
"####.########.#######.########.#######.########.#######.########",
"####.########.#######.########.#######.########.#######.########",
"####.########.#######.########.#######.########.#######.########"
};
