/* XPM */
static cha *south[] = {
"64 64 2 1",
"# c #AA3333",
". c #551A1A",
"................................................................",
"#######.########.#######.########.#######.########.#######.#####",
"#######.########.#######.########.#######.########.#######.#####",
"#######.########.#######.########.#######.########.#######.#####",
"................................................................",
"####.########.#######.########.#######.########.#######.########",
"####.########.#######.########.#######.########.#######.########",
"####.########.#######.########.#######.########.#######.########",
"................................................................",
"#######.########.#######.########.#######.########.#######.#####",
"#######.########.#######.########.#######.########.#######.#####",
"#######.########.#######.########.#######.########.#######.#####",
"................................................................",
"####.########.#######.########.#######.########.#######.########",
"####.########.#######.########.#######.########.#######.########",
"####.########.#######.########.#######.########.#######.########",
"................................................................",
"#######.########.#######.########.#######.########.#######.#####",
"#######.########.#######.########.#######.########.#######.#####",
"#######.########.#######.########.#######.########.#######.#####",
"................................................................",
"####.########.#######.########.#######.########.#######.########",
"####.########.#######.########.#######.########.#######.########",
"####.########.#######.########.#######.########.#######.########",
"................................................................",
"#######.########.#######.########.#######.########.#######.#####",
"#######.########.#######.########.#######.########.#######.#####",
"#######.########.#######.########.#######.########.#######.#####",
"................................................................",
"####.########.#######.########.#######.########.#######.########",
"####.########.#######.########.#######.########.#######.########",
"####.########.#######.########.#######.########.#######.########",
"................................................................",
"#######.########.#######.########.#######.########.#######.#####",
"#######.########.#######.########.#######.########.#######.#####",
"#######.########.#######.########.#######.########.#######.#####",
"................................................................",
"####.########.#######.########.#######.########.#######.########",
"####.########.#######.########.#######.########.#######.########",
"####.########.#######.########.#######.########.#######.########",
"................................................................",
"#######.########.#######.########.#######.########.#######.#####",
"#######.########.#######.########.#######.########.#######.#####",
"#######.########.#######.########.#######.########.#######.#####",
"................................................................",
"####.########.#######.########.#######.########.#######.########",
"####.########.#######.########.#######.########.#######.########",
"####.########.#######.########.#######.########.#######.########",
"................................................................",
"#######.########.#######.########.#######.########.#######.#####",
"#######.########.#######.########.#######.########.#######.#####",
"#######.########.#######.########.#######.########.#######.#####",
"................................................................",
"####.########.#######.########.#######.########.#######.########",
"####.########.#######.########.#######.########.#######.########",
"####.########.#######.########.#######.########.#######.########",
"................................................................",
"#######.########.#######.########.#######.########.#######.#####",
"#######.########.#######.########.#######.########.#######.#####",
"#######.########.#######.########.#######.########.#######.#####",
"................................................................",
"####.########.#######.########.#######.########.#######.########",
"####.########.#######.########.#######.########.#######.########",
"####.########.#######.########.#######.########.#######.########"
};
