/* XPM */
static char *sprite_xpm[] = {
"64 64 4 1",
". c #000000",
"R c #FF2222",
"D c #881111",
"L c #CC4400",
"................................................................",
"................................................................",
"................................................................",
"................................................................",
"..........................DDDDDDDDDDDD..........................",
"..........................RRRRRRRRRRRR..........................",
"..........................RRRRRRRRRRRR..........................",
"..........................RRRRRRRRRRRR..........................",
"..........................RRRRRRRRRRRR..........................",
"..........................RRRRRRRRRRRR..........................",
"..........................RRRRRRRRRRRR..........................",
"..........................RRRRRRRRRRRR..........................",
"..........................RRRRRRRRRRRR..........................",
"..........................DDDDDDDDDDDD..........................",
"..............................DDDD..............................",
"..............................DDDD..............................",
"..............................DDDD..............................",
".......................RRRRRRRRRRRRRRRRRR.......................",
".......................RRRRRRRRRRRRRRRRRR.......................",
".......................RRRRRRRRRRRRRRRRRR.......................",
"..................LLLLLRRRRRRRRRRRRRRRRRRLLLLL..................",
"..................LLLLLRRRRRRRRRRRRRRRRRRLLLLL..................",
"..................LLLLLRRRRRRRRRRRRRRRRRRLLLLL..................",
"..................LLLLLRRRRRRRRRRRRRRRRRRLLLLL..................",
"..................LLLLLRRRRRRRRRRRRRRRRRRLLLLL..................",
"..................LLLLLRRRRRRRRRRRRRRRRRRLLLLL..................",
"..................LLLLLRRRRRRRRRRRRRRRRRRLLLLL..................",
"..................LLLLLRRRRRRRRRRRRRRRRRRLLLLL..................",
"..................LLLLLRRRRRRRRRRRRRRRRRRLLLLL..................",
"..................LLLLLRRRRRRRRRRRRRRRRRRLLLLL..................",
"..................LLLLLRRRRRRRRRRRRRRRRRRLLLLL..................",
"..................LLLLLRRRRRRRRRRRRRRRRRRLLLLL..................",
"..................LLLLLRRRRRRRRRRRRRRRRRRLLLLL..................",
"..................LLLLLRRRRRRRRRRRRRRRRRRLLLLL..................",
"..................LLLLLRRRRRRRRRRRRRRRRRRLLLLL..................",
".......................RRRRRRRRRRRRRRRRRR.......................",
".......................RRRRRRRRRRRRRRRRRR.......................",
".......................RRRRRRRRRRRRRRRRRR.......................",
".......................RRRRRRRRRRRRRRRRRR.......................",
"........................DDDDDDD..DDDDDDD........................",
"........................DDDDDDD..DDDDDDD........................",
"........................DDDDDDD..DDDDDDD........................",
"........................DDDDDDD..DDDDDDD........................",
"........................DDDDDDD..DDDDDDD........................",
"........................DDDDDDD..DDDDDDD........................",
"........................DDDDDDD..DDDDDDD........................",
"........................DDDDDDD..DDDDDDD........................",
"........................DDDDDDD..DDDDDDD........................",
"........................DDDDDDD..DDDDDDD........................",
"........................DDDDDDD..DDDDDDD........................",
"........................DDDDDDD..DDDDDDD........................",
"........................DDDDDDD..DDDDDDD........................",
"........................DDDDDDD..DDDDDDD........................",
"........................DDDDDDD..DDDDDDD........................",
"........................DDDDDDD..DDDDDDD........................",
"........................DDDDDDD..DDDDDDD........................",
"........................DDDDDDD..DDDDDDD........................",
".......................DDDDDDDDD.DDDDDDDD.......................",
".......................DDDDDDDDD.DDDDDDDD.......................",
".......................DDDDDDDDD.DDDDDDDD.......................",
".......................DDDDDDDDD.DDDDDDDD.......................",
".......................DDDDDDDDD.DDDDDDDD.......................",
".......................DDDDDDDDD.DDDDDDDD.......................",
".......................DDDDDDDDD.DDDDDDDD......................."
};
