/* XPM */
static cha *west[] = {
"64 64 2 1",
"# c #33AA33",
". c #1A551A",
"................................................................",
"#######.########.#######.########.#######.########.#######.#####",
"#######.########.#######.########.#######.########.#######.#####",
"#######.########.#######.########.#######.########.#######.#####",
"................................................................",
"####.########.#######.########.#######.########.#######.########",
"####.########.#######.########.#######.########.#######.########",
"####.########.#######.########.#######.########.#######.########",
"................................................................",
"#######.########.#######.########.#######.########.#######.#####",
"#######.########.#######.########.#######.########.#######.#####",
"#######.########.#######.########.#######.########.#######.#####",
"................................................................",
"####.########.#######.########.#######.########.#######.########",
"####.########.#######.########.#######.########.#######.########",
"####.########.#######.########.#######.########.#######.########",
"................................................................",
"#######.########.#######.########.#######.########.#######.#####",
"#######.########.#######.########.#######.########.#######.#####",
"#######.########.#######.########.#######.########.#######.#####",
"................................................................",
"####.########.#######.########.#######.########.#######.########",
"####.########.#######.########.#######.########.#######.########",
"####.########.#######.########.#######.########.#######.########",
"................................................................",
"#######.########.#######.########.#######.########.#######.#####",
"#######.########.#######.########.#######.########.#######.#####",
"#######.########.#######.########.#######.########.#######.#####",
"................................................................",
"####.########.#######.########.#######.########.#######.########",
"####.########.#######.########.#######.########.#######.########",
"####.########.#######.########.#######.########.#######.########",
"................................................................",
"#######.########.#######.########.#######.########.#######.#####",
"#######.########.#######.########.#######.########.#######.#####",
"#######.########.#######.########.#######.########.#######.#####",
"................................................................",
"####.########.#######.########.#######.########.#######.########",
"####.########.#######.########.#######.########.#######.########",
"####.########.#######.########.#######.########.#######.########",
"................................................................",
"#######.########.#######.########.#######.########.#######.#####",
"#######.########.#######.########.#######.########.#######.#####",
"#######.########.#######.########.#######.########.#######.#####",
"................................................................",
"####.########.#######.########.#######.########.#######.########",
"####.########.#######.########.#######.########.#######.########",
"####.########.#######.########.#######.########.#######.########",
"................................................................",
"#######.########.#######.########.#######.########.#######.#####",
"#######.########.#######.########.#######.########.#######.#####",
"#######.########.#######.########.#######.########.#######.#####",
"................................................................",
"####.########.#######.########.#######.########.#######.########",
"####.########.#######.########.#######.########.#######.########",
"####.########.#######.########.#######.########.#######.########",
"................................................................",
"#######.########.#######.########.#######.########.#######.#####",
"#######.########.#######.########.#######.########.#######.#####",
"#######.########.#######.########.#######.########.#######.#####",
"................................................................",
"####.########.#######.########.#######.########.#######.########",
"####.########.#######.########.#######.########.#######.########",
"####.########.#######.########.#######.########.#######.########"
};
